X:1
T: Saddle the Pony
P:Version O'Neill's
R:Jig
Q:180
K:D
M:6/8
L:1/16
|:f2e2d2 c2A2A2|e2A2A2 c2B2A2|f2e2d2 c2A2A2|B2G2B2 d2B2G2|
f2e2d2 c2A2A2|c2A2A2 e2f2g2|f2g2f2 g2f2e2|d2B2G2 B2c2d2:|
|:c2e2e2 d2f2f2|c2e2e2 e2c2A2|c2e2e2 d2f2f2|d2B2G2 B2c2d2|
c2e2e2 d2f2f2|c2A2A2 e2f2g2|f2a2f2 g2f2e2|d2B2G2 B2c2d2:|
